!!!COM: Bach, Johann Sebastian
!!!CDT: 1685/3//-1750/7/28/
!!!OTL@@DE: O Mensch, bewein' dein' Suende gross
!!!AGN: 4-Part Chorale
!!!SCT: BH 306
!!!SCT: BWV 402
**harm	**root	**kern	**kern	**kern	**kern
!	!	!bass	!tenor	!alto	!soprno
*	*Iorgan	*Iorgan	*Iorgan	*Iorgan	*Iorgan
*M4/4	*M4/4	*M4/4	*M4/4	*M4/4	*M4/4
*met(c)	*met(c)	*met(c)	*met(c)	*met(c)	*met(c)
*MM60	*MM60	*MM60	*MM60	*MM60	*MM60
*k[]	*k[]	*k[]	*k[]	*k[]	*k[]
*C:	*C:	*C:	*C:	*C:	*C:
*>[A,A,B]	*>[A,A,B]	*>[A,A,B]	*>[A,A,B]	*>[A,A,B]	*>[A,A,B]
*>A	*>A	*>A	*>A	*>A	*>A
I	4EE-	4C	4E	4G	4c
=1	=1	=1	=1	=1	=1
IV	4AA-	8F	4F	4.A	4c
.	.	8E	.	.	.
ii	4FF	4D	4F	.	4d
.	.	.	.	16G#	.
.	.	.	.	16A	.
Vb/vi	4GG	4GG#	4E	4.B	8e
.	.	.	.	.	8d
vi	4CC	[4AA	4E	.	4c
.	.	.	.	16A	.
.	.	.	.	16B	.
=2	=2	=2	=2	=2	=2
vi	4CC	4AA]	8A	4.c	4e
.	.	.	8G	.	.
viioD7/iii	4FF#	4DD#	4F#	.	4f#
.	.	.	.	8B	.
iii;	4GG;	4EE;	4E;	4B;	4g;
iii	4GG	4E	4B	[4e	4g
=3	=3	=3	=3	=3	=3
IVb	8AA-	8AA	8c	8e]	4fy
V7b	8BB-	8BB	8G	4d	.
I	4EE-	4C	4G	.	4e
.	.	.	.	4c	.
V7b/V	8FF	8FF#	8A	.	4d
V7b/vi	8GG	8GG#	8E	8B	.
vi	4CC	[4AA	4E	8A	8c
.	.	.	.	8B	8d
=4	=4	=4	=4	=4	=4
vi	4CC	4AA]	8A	4c	4e
.	.	.	8G	.	.
V7/V	4FF	4DD	4A	4c	4f#
V;	4BB-;	4GG;	4G;	4B;	4g;
ii	4FF	8D	[4Fy	[4d	4a
.	.	8C	.	.	.
=5	=5	=5	=5	=5	=5
V7b	8BB-	8BB	8F]	8d]	4g
Ic	8EE-	8GG	4E	16c	.
.	.	.	.	16B	.
IVb	8AA-	8AA	.	8c	4f
V7b	8BB-	8BB	8D	8G	.
I	4EE-	8C	4.C	8G	4e
.	.	8BB	.	16c	.
.	.	.	.	16B	.
IVb	4AA-	8AA	.	[4c	4f
.	.	8GG	8G	.	.
!!linebreak: 3
=6	=6	=6	=6	=6	=6
ii7b	8FF	8FF	8A	8c]	2d
viib	8DD	8DD	8F	16B	.
.	.	.	.	16A	.
V	4BB-	4GG	8D	4B	.
.	.	.	8G	.	.
I;	4EE-;	4CC;	4E;	4G;	4c;
=:|!	=:|!	=:|!	=:|!	=:|!	=:|!
*>B	*>B	*>B	*>B	*>B	*>B
I	8EE-	8CC	8E	8g	4cc
ii7	8FF	8DD	8F	8f	.
=7	=7	=7	=7	=7	=7
Ib	4EE-	4EE	4G	4e	4cc
V7b/V	4FF	4FF#	[4A	4d	4cc
V	4BB-	8GG	8A]	4d	4b
.	.	8AA	16G	.	.
.	.	.	16Fy	.	.
V7d/IV	4EE-	4BB-	4E	4c	4g
=8	=8	=8	=8	=8	=8
IVb	4AA-	8AA	4F	8c	4a
.	.	8GG	.	8B-	.
IV	4AA-	4FF	4F	4c	4a
I;	4EE-;	4C;	4G;	4c;	4e;
vi	4CC	8AA	4A	4e	4cc
.	.	8GG	.	.	.
=9	=9	=9	=9	=9	=9
V7b/V	4FF	8FF#	8A	4d	4cc
.	.	8EE	8G	.	.
V7/V	4FF	4DD	4F#	4d	4cc
V	4BB-	8GG	8G	4d	4b
.	.	8AA	8F#	.	.
Vb	4BB-	4BB	[4G	4d	4g
=10	=10	=10	=10	=10	=10
V7/II	4CC	4AA	8G]	4e	4a
.	.	.	16F#	.	.
.	.	.	16E	.	.
II	4FF	4D	4F#	8d	4a
.	.	.	.	8c	.
V;	4BB-;	4GG;	4G;	4B;	4g;
I	4EE-	[4C	4G	8c	8e
.	.	.	.	8d	8f
=11	=11	=11	=11	=11	=11
I	4EE-	8C]	4c	4e	4g
.	.	8BB-	.	.	.
IVb	4AA-	8AA	4c	4f	4a
.	.	8BB	.	.	.
V/IV	4EE-	4C	8c	4e	4g
.	.	.	4B-	.	.
Vb/ii	4CC	4C#	.	[4e	4e
.	.	.	8A	.	.
!!linebreak: 3
=12	=12	=12	=12	=12	=12
ii	4FF	4D	4A	8e]	2f
.	.	.	.	16d	.
.	.	.	.	16c	.
viiD7/vi	4BB	4GG#	8B	8d	.
.	.	.	8d	8B	.
vi;	4CC;	4AA;	4A;	4c;	4e;
IV/IV	4DD-	[4BB-	4F	4d	4d
=13	=13	=13	=13	=13	=13
V7d/IV	4EE-	4BB-]	4G	4c	4e
IV	4AA-	4AA	4A	4c	4f
V	4BB-	8GG	4B	4d	4g
.	.	8FF	.	.	.
iii	4GG	4EE	8BB	4e	4g
.	.	.	8C#	.	.
=14	=14	=14	=14	=14	=14
ii	4FF	4DD	4D	8A	4f
.	.	.	.	8B	.
Ib	4EE-	8EE	4G	[4c	4e
.	.	8FF	.	.	.
V;	4BB-;	4GG;	4G;	8c]	4d;
.	.	.	.	8B;	.
V	4BB-	4G	4B	4d	4g
=15	=15	=15	=15	=15	=15
Vb/V	4FF	4F#	4A	4d	4a
V7c	4BB-	4F	[4G	4d	4b
Ib	4EE-	4.E	8G]	8e	4cc
.	.	.	8A	8f#	.
iii	4GG	.	4B	[4g	4b
.	.	8D	.	.	.
=16	=16	=16	=16	=16	=16
V7b/ii	4CC	4C#	4E	4g]	4a
V7b/iii	4DD	4D#	4B	4f#	4a
iii;	4GG;	4E;	4B;	4e;	4g;
IV	4AA-	[4Fy	4A	4c	4c
=17	=17	=17	=17	=17	=17
V7d	4BB-	8F]	4G	4B	4d
.	.	8E	.	.	.
I	4EE-	8D	4.G	4c	4e
.	.	8C	.	.	.
V7b	8BB-	8BB	.	8d	4f
V7	8BB-	8GG	8D	8B	.
I	8EE-	8C	8E	8G	4e
Ib	8EE-	8EE	8G	[8c	.
=18	=18	=18	=18	=18	=18
ii7b	8FF	4FF	8A	8c]	2d
viib	8DD	.	8F	16B	.
.	.	.	.	16A	.
V	4BB-	4GG	8D	4B	.
.	.	.	16G	.	.
.	.	.	16F	.	.
I;	4EE-;	4CC;	4E;	4G;	4c;
==	==	==	==	==	==
*-	*-	*-	*-	*-	*-
!!chor2scor: -l 3 -s 0.6 -o %b.pmx
!!!YEC: Copyright 1994, David Huron
!!!YEC: Changes/Additions 2001 by Craig Stuart Sapp
!!!YEN: United States of America
!!!SMA: 371 Bach Chorales, edited by Ludwig Erk, C.F. Peters
!!!PDT: 1850, 1865
!!!ONB: Harmony and Root analysis done manually
